X:1
T:Lord Randall (or Orlando)
M:3/4
L:1/4
K:C
 D| B B B| B G G| d A A| A2 d| d e c| d e c| B c A| G G G| G2||
